public/static/img/user/calendar.svg

<svg width="16" height="16" viewBox="0 0 16 16" fill="none" xmlns="http://www.w3.org/2000/svg"><g clip-path="url(#clip0_33_30849)"><path d="M13.6838 15.0392H2.39184C1.53584 15.0392 0.839844 14.3432 0.839844 13.4912V3.75122C0.839844 2.89522 1.53584 2.19922 2.39184 2.19922H13.6838C14.5358 2.19922 15.2318 2.89522 15.2318 3.74722V13.4872C15.2318 14.3432 14.5358 15.0392 13.6838 15.0392ZM2.39184 3.15922C2.06784 3.15922 1.79984 3.42322 1.79984 3.75122V13.4912C1.79984 13.8152 2.06384 14.0792 2.38784 14.0792H13.6798C14.0038 14.0792 14.2678 13.8152 14.2678 13.4912V3.75122C14.2678 3.42722 14.0038 3.16322 13.6798 3.16322H2.39184V3.15922Z" fill="#666D80"/><path d="M14.7409 7.11177H1.44094C1.17694 7.11177 0.960938 6.89577 0.960938 6.63177C0.960938 6.36777 1.17694 6.15177 1.44094 6.15177H14.7409C15.0049 6.15177 15.2209 6.36777 15.2209 6.63177C15.2209 6.89577 15.0049 7.11177 14.7409 7.11177ZM4.79694 4.53177C4.53294 4.53177 4.31694 4.31977 4.31694 4.05577L4.29694 1.24377C4.29694 0.979766 4.50894 0.763766 4.77294 0.759766C5.03694 0.759766 5.25294 0.971766 5.25694 1.23577L5.27694 4.04777C5.27694 4.31177 5.06494 4.52777 4.79694 4.53177ZM11.2009 4.53177C10.9369 4.53177 10.7209 4.31977 10.7209 4.05577L10.7009 1.24377C10.7009 0.979766 10.9129 0.763766 11.1769 0.759766H11.1809C11.4449 0.759766 11.6609 0.971766 11.6609 1.23577L11.6809 4.04777C11.6849 4.31177 11.4729 4.52777 11.2009 4.53177C11.2049 4.53177 11.2049 4.53177 11.2009 4.53177ZM5.32494 9.63977H3.68494C3.42094 9.63977 3.20494 9.42377 3.20494 9.15977C3.20494 8.89577 3.42094 8.67977 3.68494 8.67977H5.32494C5.58894 8.67977 5.80494 8.89577 5.80494 9.15977C5.80494 9.42377 5.58894 9.63977 5.32494 9.63977ZM5.32494 12.1198H3.68494C3.42094 12.1198 3.20494 11.9038 3.20494 11.6398C3.20494 11.3758 3.42094 11.1598 3.68494 11.1598H5.32494C5.58894 11.1598 5.80494 11.3758 5.80494 11.6398C5.80494 11.9038 5.58894 12.1198 5.32494 12.1198ZM8.72094 9.64377H7.08094C6.81694 9.64377 6.60094 9.42776 6.60094 9.16376C6.60094 8.89977 6.81694 8.68377 7.08094 8.68377H8.72094C8.98494 8.68377 9.20094 8.89977 9.20094 9.16376C9.20094 9.42776 8.98494 9.64377 8.72094 9.64377ZM8.72094 12.1198H7.08094C6.81694 12.1198 6.60094 11.9038 6.60094 11.6398C6.60094 11.3758 6.81694 11.1598 7.08094 11.1598H8.72094C8.98494 11.1598 9.20094 11.3758 9.20094 11.6398C9.20094 11.9038 8.98494 12.1198 8.72094 12.1198ZM12.2969 9.64377H10.6569C10.3929 9.64377 10.1769 9.42776 10.1769 9.16376C10.1769 8.89977 10.3929 8.68377 10.6569 8.68377H12.2969C12.5609 8.68377 12.7769 8.89977 12.7769 9.16376C12.7769 9.42776 12.5609 9.64377 12.2969 9.64377ZM12.2969 12.1198H10.6569C10.3929 12.1198 10.1769 11.9038 10.1769 11.6398C10.1769 11.3758 10.3929 11.1598 10.6569 11.1598H12.2969C12.5609 11.1598 12.7769 11.3758 12.7769 11.6398C12.7769 11.9038 12.5609 12.1198 12.2969 12.1198Z" fill="#666D80"/></g><defs><clipPath id="clip0_33_30849"><rect width="16" height="16" fill="white"/></clipPath></defs></svg>

<svg width="16" height="16" fill="none" xmlns="http://www.w3.org/2000/svg"><g clip-path="url(#a)" fill="#666D80"><path d="M13.684 15.04H2.392A1.553 1.553 0 0 1 .84 13.49V3.75c0-.856.696-1.552 1.552-1.552h11.292c.852 0 1.548.696 1.548 1.548v9.74c0 .856-.696 1.552-1.548 1.552ZM2.392 3.16a.593.593 0 0 0-.592.591v9.74c0 .324.264.588.588.588H13.68a.589.589 0 0 0 .588-.588v-9.74a.589.589 0 0 0-.588-.588H2.392V3.16Z"/><path d="M14.74 7.112H1.44a.481.481 0 0 1-.48-.48c0-.264.217-.48.48-.48h13.3a.48.48 0 0 1 0 .96Zm-9.943-2.58a.478.478 0 0 1-.48-.476l-.02-2.812c0-.264.212-.48.476-.484.264 0 .48.212.484.476l.02 2.812c0 .264-.212.48-.48.484Zm6.404 0a.478.478 0 0 1-.48-.476l-.02-2.812c0-.264.212-.48.476-.484h.004c.264 0 .48.212.48.476l.02 2.812a.48.48 0 0 1-.48.484c.004 0 .004 0 0 0ZM5.325 9.64h-1.64a.481.481 0 0 1-.48-.48c0-.264.216-.48.48-.48h1.64c.264 0 .48.216.48.48s-.216.48-.48.48Zm0 2.48h-1.64a.481.481 0 0 1-.48-.48c0-.264.216-.48.48-.48h1.64c.264 0 .48.216.48.48s-.216.48-.48.48ZM8.72 9.644H7.08a.481.481 0 0 1-.48-.48c0-.264.216-.48.48-.48h1.64c.264 0 .48.216.48.48s-.216.48-.48.48Zm0 2.476H7.08a.481.481 0 0 1-.48-.48c0-.264.216-.48.48-.48h1.64c.264 0 .48.216.48.48s-.216.48-.48.48Zm3.576-2.476h-1.64a.481.481 0 0 1-.48-.48c0-.264.216-.48.48-.48h1.64c.264 0 .48.216.48.48s-.216.48-.48.48Zm0 2.476h-1.64a.481.481 0 0 1-.48-.48c0-.264.216-.48.48-.48h1.64c.264 0 .48.216.48.48s-.216.48-.48.48Z"/></g><defs><clipPath id="a"><path fill="#fff" d="M0 0h16v16H0z"/></clipPath></defs></svg>
